X:1
T:The Tin-Ware Lass -- Reel
R:reel
B:Ryan's Mammoth Collection
Z:Contributed by Ray Davies,  ray:davies99.freeserve.co.uk
M:C|
L:1/8
K:G
vBA|\
GABc d2 ef  | gfga  gedB  | c2 ce dBGB | B2 AA A2 BA |
GABc d2 ef  | gfga  gedB  | c2 ce dBAB |G2 GG G2    ::
fg|\
a2 ff d2 ef | g2 GG G2 ge | dBge dBGB  | B2 AA A2 BA |
GABc d2 ef  | gfga  gedB  | c2 ce dBAB | G2 GG G2   :|
